X:1
T:Vostre beaulte
T:Vostre beaulté 3v
T:Tielman Susato
T:Source : Le premier Livre des Chansons à 3 parties---Anvers---T.Susato---1544. Editor : André Vierendeels (08/02/15).
T:Notes : Original clefs : G2, C2, C4 Original note values have been halved Editorial accidentals above the staff Notice above the S voice : "Puis chanterez tous trois ensamble"
C:Tielman Susato
%%score [ 1 [ 2 3 ] ]
L:1/8
Q:1/4=84
M:2/2
K:C
V:1 treble nm="Superius" snm="S"
V:2 treble nm="Altus" snm="A"
V:3 treble-8 nm="Tenor" snm="T"
V:1
 z4 A4 | c2 d2 e2 e2 | f2 f2 e3 d | e2 f4 ed | ^c4 z2 f2 | e2 d2 cB cd | ef e3 d cB | %7
w: Vo-|stre beaul- té plai-|sant et ly- *||e, me|don- ne re- * * *|* * cre- * * *|
 AG AB cd e2- | ed d4 c2 | d8 | z4 A4 | c2 d2 e2 e2 | f2 f2 e3 d | e2 f4 ed | ^c4 z2 f2 | %15
w: |* * a- ti-|on,|vo-|stre gor- get- te'u-|ne'har- mo- ni- *||e, que|
 e2 d2 cB cd | ef e3 d cB | AG AB cd e2- | ed d4 c2 | d4 z2 f2 | f2 e2 f2 f2 | e2 d2 cB cd | %22
w: si tref- fort _ _ _|_ _ à _ _ _|_ _ vous _ _ _ me|_ _ li- *|e, que|ie suis en op-|pres- sion, _ _ _ _|
 ec f4 e2 | f8 | z2 f2 f2 f2 | ed cB A4 | z2 f2 f2 f2 | ed cB AG FE | DE FG AB cd | ef ge f2 e2- | %30
w: _ _ _ _||pen- sant à|vous, _ _ _ _|pen- sant à|vous, _ _ _ _ _ _ _|_ _ _ _ _ _ _ _|* * * * par a-|
 ed d3 c/B/ c2 | d4 z4 | f4 f2 f2 | ed cB A4 | z2 f2 f2 f2 | ed cB AG FE | DE FG AB cd | %37
w: * * * * * mi-|tié,|pen- sant à|vous _ _ _ _|pen- sant à|vous _ _ _ _ _ _ _|_ _ _ _ _ _ _ _|
 ef ge f2 e2- | ed d3 c/B/ c2 | d8 |] %40
w: * * * * par a-|* * mi- * * ti-|é.|
V:2
 A,4 C2 D2 | E2 F2 E2 A2- | A2 GF G2 A2- | AGFE DEFG | A2 E2 F2 F2 | G2 G2 A3 G/F/ | G2 A2 E2 F2- | %7
w: Vo- stre beaul-|té plai- sant et|_ _ _ ly- *||e, me don- ne|re- cre- a- * *||
 F2 ED E2 A2 | F2 G2 E4 | D4 z4 | D4 F3 G | A2 F2 G2 A2 | DEFG AB c2- | cBAG F2 G2 | A4 z2 F2 | %15
w: |* * ti-|on,|vo- stre gor-|get- te'u- ne'har- mo-|ni- * * * * * *||e, que|
 G2 G2 A3 G/F/ | G2 A2 E4 | FEFG A3 G | F2 ED E4 | D8 | z2 A2 A2 F2 | G2 G2 A3 G/F/ | E2 F2 G4 | %23
w: si tref- fort _ _|_ à vous|me- * * * * *|* * * li-|e,|que ie suis|en op- pres- * *|* * si-|
 F4 z2 _B2 | _B2 B2 A3 G/F/ | G2 A3 GFE | D2 D2 DEFG | A2 A2 cBAG | FEDE FGAF | GABG A3 G | %30
w: on, prn-|sant à vous, _ _|_ _ _ _ _|* pen- sant _ _ _|_ à vous _ _ _|_ _ _ _ _ _ _ _|* * * * par a-|
 F2 ED E4 | D2 _B2 B2 B2 | AGFE DEFG | A4 z2 F2 | F2 F2 DEFG | AGAB cBAG | F2 DE FGAF | GABG A3 G | %38
w: mi- * * ti-|é, pen- sant à|vous _ _ _ _ _ _ _|_ par|a- mi- ti _ _ _|_ _ _ _ _ _ _ _|||
 F2 ED E4 | D8 |] %40
w: |é.|
V:3
 z2 A2 F2 D2 | A2 D2 A4 | d4 c2 A2 | A2 A2 _B4 |"^#" A4 z2 d2 | c2 B2 A2 F2 | c3 A A4 | %7
w: Vo- stre beaul-|te, vo- stre|beaul- te plai-|sant et ly-|e me|don- ne re- cre-|a- ti- on,|
 z2 d2 c2 A2 |"^b" B2 G2 A2 A2 | D4 z2 G2 | _B3 c d4 | A2 d2 c2 A2 | d4 A3 B | c2 d4 cB | %14
w: me don- ne|re- cre- a- ti-|on, vo-|stre gor- get-|te'u- ne'har- mo- ni-|||
 A4 z2 d2 | c2 B2 A2 F2 | c2 A3 B c2 | d4 A2 A2 |"^b" B4 A4 | D4 z2 d2 | d2 c2 d2 d2 | %21
w: e, que|si tref- fort a|vous me _ _|li- e, me|li- *|e, que|ie suis en op-|
 c2 B2 A2 F2 | c2 d2 c4 | z2 d2 d2 _B2 | _Bc de f3 e/d/ | c2 A2 d2 d2 | f3 e d4 | z2 A2 A2 A2 | %28
w: pres- si- on, en|op- pres- sion|pen- snt à|vous _ _ _ _ _ _|_ pen- sant à|vous, _ _|par a- mi-|
"^b" B2 AG F2 F2 | c2 G2 d2 c2 | d2 B2 A4 | _B4 B2 G2 | d3 e f3 e/d/ |"^#" c2 A2 d4- | d2 d2 f4 | %35
w: tie _ _ _ pen-|sant à vous par|a- mi- tié,|pen- sant à|vous _ _ _ _|_ pen- sant|_ à vous|
 z2 A2 A2 A2 |"^b" B2 AG F2 F2 | c2 G2 d2 c2 | d2 B2 A4 | D8 |] %40
w: par a- mi-|tie, _ _ _ pen-|sant à vous par|a- mi- ti-|é.|

